demos/barber/images/icons/wallet.svg

<?xml version="1.0" encoding="UTF-8" standalone="no"?><!DOCTYPE svg PUBLIC "-//W3C//DTD SVG 1.1//EN" "http://www.w3.org/Graphics/SVG/1.1/DTD/svg11.dtd"><svg width="100%" height="100%" viewBox="0 0 55 59" version="1.1" xmlns="http://www.w3.org/2000/svg" xmlns:xlink="http://www.w3.org/1999/xlink" xml:space="preserve" style="fill-rule:evenodd;clip-rule:evenodd;stroke-linejoin:round;stroke-miterlimit:1.41421;"><g id="__1"><path d="M35.89,1.78c-1.378,-1.911 -4.077,-2.361 -6,-1l-11.89,8.67l18.83,-6.37l-0.94,-1.3Z" style="fill:#005a76;fill-rule:nonzero;"/><path d="M44.16,8.42c-0.746,-2.233 -3.195,-3.46 -5.43,-2.72l-14.63,4.93l20.81,0l-0.75,-2.21Z" style="fill:#005a76;fill-rule:nonzero;"/><path d="M44.3,45.35c-5.549,0 -10.115,-4.566 -10.115,-10.115c0,-5.549 4.566,-10.115 10.115,-10.115l3.45,0c0.965,0.003 1.925,0.144 2.85,0.42l0,-7.54c0,-0.08 0,-0.16 0,-0.24c-0.127,-2.275 -2.032,-4.078 -4.31,-4.08l-42,0c-2.017,0.02 -3.766,1.448 -4.19,3.42c-0.064,0.296 -0.098,0.597 -0.1,0.9l0,35.82c0,2.359 1.931,4.304 4.29,4.32l42,0c2.37,0 4.32,-1.95 4.32,-4.32l0,-8.88c-0.925,0.272 -1.885,0.41 -2.85,0.41l-3.46,0Z" style="fill:#005a76;fill-rule:nonzero;"/><path d="M50.59,28.82c-0.897,-0.401 -1.868,-0.609 -2.85,-0.61l-3.44,0c-3.854,0 -7.025,3.171 -7.025,7.025c0,3.854 3.171,7.025 7.025,7.025c0,0 3.45,0 3.45,0c0.044,0.001 0.089,0.001 0.133,0.001c3.84,0 7,-3.16 7,-7c0,-2.81 -1.693,-5.36 -4.283,-6.451l-0.01,0.01Zm-4.59,9.47c-1.673,0 -3.05,-1.377 -3.05,-3.05c0,-1.673 1.377,-3.05 3.05,-3.05c1.673,0 3.05,1.377 3.05,3.05c0,1.673 -1.377,3.05 -3.05,3.05Z" style="fill:#005a76;fill-rule:nonzero;"/></g></svg>

<svg xmlns="http://www.w3.org/2000/svg" viewBox="0 0 54.78 58.14"><defs><style>.cls-1{fill:#bc9153;}</style></defs><title>wallet</title><g id="Layer_2" data-name="Layer 2"><g id="_1" data-name=" 1"><path class="cls-1" d="M35.89,1.78a4.32,4.32,0,0,0-6-1L18,9.45,36.83,3.08Z"/><path class="cls-1" d="M44.16,8.42A4.3,4.3,0,0,0,38.73,5.7h0L24.1,10.63H44.91Z"/><path class="cls-1" d="M44.3,45.35a10.11,10.11,0,0,1,0-20.23h3.45a10.08,10.08,0,0,1,2.85.42V18c0-.08,0-.16,0-.24a4.32,4.32,0,0,0-4.31-4.08h-42A4.33,4.33,0,0,0,.1,17.1,4.36,4.36,0,0,0,0,18V53.82a4.32,4.32,0,0,0,4.29,4.32h42a4.32,4.32,0,0,0,4.32-4.32V44.94a10.08,10.08,0,0,1-2.85.41Z"/><path class="cls-1" d="M50.59,28.82a7,7,0,0,0-2.85-.61H44.3a7,7,0,1,0,0,14.05h3.45a7,7,0,0,0,2.85-13.45ZM46,38.29a3.05,3.05,0,1,1,3.05-3.05A3.05,3.05,0,0,1,46,38.29Z"/></g></g></svg>
